X:2
T:Blue Jig
C:Joel Mabus
N:Arranged for guitar by Mike Stangeland
L:1/8
Q:1/4=200
M:6/8
K:C
z6 | z6 |: "Gm"A3 cBA | "Dm"cBA a3 | "Gm"age ^d=dc | "Bb"d^de "C"d=dc | "Gm"A3 cBA | 
cBA a3 | age cAG | "D"^D=DC "Gm"A,3 :|: "Gm"^FAB cBA | ^FAB cBA | "G7"^ce^f gfe | 
^ce^f gfe | "Gm"^FAB cBA | ^FAB cBA | "Gm"age "E"cAG | "D7"^D=DC "Gm"A,3 :| 


